assets/Input latin lowercase/Flat/input_latin_lowercase_flat.svg

<svg width="32" height="32" viewBox="0 0 32 32" fill="none" xmlns="http://www.w3.org/2000/svg">
<path d="M2 6C2 3.79086 3.79086 2 6 2H26C28.2091 2 30 3.79086 30 6V26C30 28.2091 28.2091 30 26 30H6C3.79086 30 2 28.2091 2 26V6Z" fill="#00A6ED"/>
<path d="M19 4.98071C19.5523 4.98071 20 5.42843 20 5.98071V8.38393C20.4546 8.16796 20.9632 8.04712 21.5 8.04712C23.433 8.04712 25 9.61412 25 11.5471C25 13.4801 23.433 15.0471 21.5 15.0471C20.9009 15.0471 20.3369 14.8966 19.8438 14.6312C19.6663 14.9097 19.3547 15.0944 19 15.0944C18.4477 15.0944 18 14.6467 18 14.0944V5.98071C18 5.42843 18.4477 4.98071 19 4.98071ZM21.5 13.0471C22.3284 13.0471 23 12.3755 23 11.5471C23 10.7187 22.3284 10.0471 21.5 10.0471C20.6716 10.0471 20 10.7187 20 11.5471C20 12.3755 20.6716 13.0471 21.5 13.0471Z" fill="white"/>
<path d="M13.986 8.9021C13.986 8.34981 13.5382 7.9021 12.986 7.9021C12.6026 7.9021 12.2697 8.11777 12.1019 8.43438C11.6219 8.18687 11.0773 8.04712 10.5 8.04712C8.567 8.04712 7 9.61412 7 11.5471C7 13.4801 8.567 15.0471 10.5 15.0471C11.0949 15.0471 11.6551 14.8987 12.1457 14.6369C12.3238 14.9122 12.6336 15.0944 12.986 15.0944C13.5382 15.0944 13.986 14.6467 13.986 14.0944V11.8627C13.9953 11.7588 14 11.6535 14 11.5471C14 11.4407 13.9953 11.3355 13.986 11.2315V8.9021ZM11.986 11.7532C11.8855 12.4841 11.2585 13.0471 10.5 13.0471C9.67157 13.0471 9 12.3755 9 11.5471C9 10.7187 9.67157 10.0471 10.5 10.0471C11.2585 10.0471 11.8855 10.6101 11.986 11.3411V11.7532Z" fill="white"/>
<path d="M11.0133 21C10.1849 21 9.51331 21.6716 9.51331 22.5C9.51331 23.3284 10.1849 24 11.0133 24C11.3451 24 11.6491 23.8935 11.8968 23.7125C12.3427 23.3866 12.9683 23.484 13.2942 23.9299C13.62 24.3758 13.5227 25.0014 13.0767 25.3273C12.4981 25.7501 11.7834 26 11.0133 26C9.08031 26 7.51331 24.433 7.51331 22.5C7.51331 20.567 9.08031 19 11.0133 19C11.7834 19 12.4981 19.2499 13.0767 19.6727C13.5227 19.9986 13.62 20.6242 13.2942 21.0701C12.9683 21.516 12.3427 21.6134 11.8968 21.2875C11.6491 21.1065 11.3451 21 11.0133 21Z" fill="white"/>
<path d="M24.5898 17C24.5898 16.4477 24.1421 16 23.5898 16C23.0376 16 22.5898 16.4477 22.5898 17V19.3368C22.1352 19.1208 21.6266 19 21.0898 19C19.1568 19 17.5898 20.567 17.5898 22.5C17.5898 24.433 19.1568 26 21.0898 26C21.6768 26 22.2301 25.8555 22.7159 25.6001C22.8868 25.9065 23.2141 26.1137 23.5898 26.1137C24.1421 26.1137 24.5898 25.666 24.5898 25.1137V17ZM22.5898 22.5C22.5898 23.3284 21.9183 24 21.0898 24C20.2614 24 19.5898 23.3284 19.5898 22.5C19.5898 21.6716 20.2614 21 21.0898 21C21.9183 21 22.5898 21.6716 22.5898 22.5Z" fill="white"/>
</svg>

<svg xmlns="http://www.w3.org/2000/svg" width="32" height="32" fill="none"><path fill="#00A6ED" d="M2 6a4 4 0 0 1 4-4h20a4 4 0 0 1 4 4v20a4 4 0 0 1-4 4H6a4 4 0 0 1-4-4V6Z"/><path fill="#fff" d="M19 4.98a1 1 0 0 1 1 1v2.404a3.5 3.5 0 1 1-.156 6.247A1 1 0 0 1 18 14.094V5.981a1 1 0 0 1 1-1Zm2.5 8.067a1.5 1.5 0 1 0 0-3 1.5 1.5 0 0 0 0 3ZM13.986 8.902a1 1 0 0 0-1.884-.468 3.5 3.5 0 1 0 .044 6.203 1 1 0 0 0 1.84-.543v-2.231a3.54 3.54 0 0 0 0-.631v-2.33Zm-2 2.851a1.5 1.5 0 1 1 0-.412v.412ZM11.013 21a1.5 1.5 0 1 0 .884 2.712 1 1 0 1 1 1.18 1.615 3.5 3.5 0 1 1 0-5.655 1 1 0 1 1-1.18 1.616 1.489 1.489 0 0 0-.884-.288ZM24.59 17a1 1 0 1 0-2 0v2.337a3.5 3.5 0 1 0 .126 6.263 1 1 0 0 0 1.874-.486V17Zm-2 5.5a1.5 1.5 0 1 1-3 0 1.5 1.5 0 0 1 3 0Z"/></svg>
